X: 615
T: Düriyemin Güğümleri Kalaylı
C: (Anonim)
O: Turkey
F: http://compmusic.upf.edu/node/140
N: huzzam--turku--aksak--duriyemin_gugumleri--
N: makam= huzzam
N: form= turku
N: usul= aksak = 9/8
M: 9/8
L: 1/16
K: C _1/4B _3/4e ^3/4f 
Q: 1/4=210
%%MIDI tuningsystem comma53
g4 g4 g2f2 a2g2 f2 | f4g4e2 d2f2 e2d2  | \
w:  ARANAĞME  |   | 
g4 g4 f2e2 d2c2 B2 | 
w:   | 
=f4f2 _1/4e2e2 d2d2 c2d2  | c2B8-B2 d2e2 f2 | \
w:   |   | 
g4g4g2 f2a2 g2f2  | 
w:  ARANAĞME  | 
f4 g4 e2d2 f2e2 d2 | g4g4f2 e2d2 c2B2  | \
w:   |   | 
=f4 f2_1/4e2 e2d2 d2c2 d2 | 
w:   | 
c2 B8-B2de dcBc  | d4 B2c2 d4 d4 z2 | \
w:   |  *  Dü ri ye min   | 
g2 g6g2 f2a2 g2f2  | 
w:  gü ğüm le *  ri   | 
f2e4d2 d4 f2e2 f2 | e2 d6d4de dcB^A  | \
w:  ka lay *  lı  ah   |  ka lay lı   SAZ  | 
B4 B2c2 d4 d4 z2 | 
w:  *  Dü ri ye min   | 
g2 g6g2 f2a2 g2f2  | f2e4d2 d4 f2e2 f2 | \
w:  gü ğüm le *  ri   |  ka lay *  lı  ah   | 
e2 d6d4d2 e2f2  | g4 g4 g2f2 a2g2 f2 | 
w:  ka lay lı   SAZ  |  Fis tan  giy *  miş   | 
f4g4e2 d2f2 e2d2  | g2g6 f2e2 d2c2 B2 | \
w:  e tek le *  ri   |  ha lay lı   | 
=f4f2 _1/4e2e2 d2d2 c2d2  | 
w:  ha lay *  lı  *  a  | 
c2B6 B4 d2e2 f2 | g4g4g2 f2a2 g2f2  | \
w:  man_ a man   SAZ  |  Fis tan  giy *  miş   | 
f4 g4 e2d2 f2e2 d2 | g2 g6f2 e2d2 c2B2  | 
w:  e tek le *  ri   |  ha lay lı   | 
=f4 f2_1/4e2 e2d2 d2c2 d2 | c2 B6B4de dcBc  | \
w:  ha lay *  lı  *  a  |  man_ a man   SAZ  | 
d4 B2c2 d4 d4 z2 | 
w:  *  Dü ri ye mi   | 
g4g4g2 f2a2 g2f2  | f2e2 e2d2 d4 f2e2 f2 | \
w:  al dat ma *  sı   |  ko lay  *  *  mı  ah   | 
e2 d6d4de dcB^A  | 
w:  ko lay  mı   SAZ  | 
B4 B2c2 d4 d4 z2 | g4g4g2 f2a2 g2f2  | \
w:  *  Dü ri ye mi   |  al dat ma *  sı   | 
f2e2 e2d2 d4 f2e2 f2 | 
w:  ko lay  *  *  mı  ah   | 
e2 d6d4d2 e2f2  | g4 g2g2 g2f2 a2g2 f2 | \
w:  ko lay  mı   SAZ  |  Ah  a lı rım  *  de  | 
f4g4e2 d2f2 e2d2  | 
w:  din  de  al *  dat  | 
g4 g4 f2e2 d2c2 B2 | =f4f2 _1/4e2e2 d2d2 c2d2  | \
w:  tın  be ni   |  al dat *  tın  *  be  | 
c2B6 B4 d2e2 f2 | 
w:  ni  a man   SAZ  | 
g4g4g2 f2a2 g2f2  | f4 g4 e2d2 f2e2 d2 | \
w:  Üç  tel li  *  saz   |  i le  oy *  nat  | 
g4g4f2 e2d2 c2B2  | 
w:  tın  be ni   | 
=f4 f2_1/4e2 e2d2 d2c2 d2 | c2 B6B8z2  | |


